resources/external-link.svg

<svg xmlns="http://www.w3.org/2000/svg" width="24" height="24" fill="#f4f4f7" viewBox="0 0 24 24"><path stroke="#555e70" stroke-linecap="round" stroke-linejoin="round" stroke-width="2" d="M10 6H6C4.89543 6 4 6.89543 4 8V18C4 19.1046 4.89543 20 6 20H16C17.1046 20 18 19.1046 18 18V14M14 4H20M20 4V10M20 4L10 14"/></svg>

<svg width="24" height="24" fill="#f4f4f7">
  <path stroke="#555e70" stroke-linecap="round" stroke-linejoin="round" stroke-width="2" d="M10 6H6a2 2 0 0 0-2 2v10a2 2 0 0 0 2 2h10a2 2 0 0 0 2-2v-4M14 4h6m0 0v6m0-6L10 14"/>
</svg>
